X:1
T:ПОЖЕЛТЕВШИЕ СТРАНИЦЫ
T:НЕЗАТЕЙЛЕВЫЕ ВЕЩИЦЫ
T:Семь пьес II
T:Николай Мясковский Соч. 31            
%%score { ( 1 2 3 ) | ( 4 5 6 ) }
L:1/8
Q:1/4=50
M:3/2
K:Eb
V:1 treble nm="Piano" snm="Pno."
V:2 treble 
V:3 treble 
V:4 bass 
V:5 bass 
V:6 bass 
V:1
!p!"^Un poco sostenuto malinconico e abbandonamente"!<(! ([D,D]2 [E,E-]2!<)!!mp! [EG]8)[Q:1/4=46] | %1
[M:2/2]!p![Q:1/4=50]!<(! ([D,D]2 [E,E-]2!<)!!mp! [G,EG]4) | %2
[M:4/2][Q:1/4=48]!p!!>(! (.D.D D2-!>)!!pp![Q:1/4=46] D4- D8) | %3
[M:3/2]!p![Q:1/4=50]!<(! ([D,D]2!<)!!mp!!>(! [E,E-]2!>)!!p! [EG]8)[Q:1/4=46] | %4
[M:2/2][Q:1/4=50] z2!p!!<(! ([D,D]!p![E,E-]!p! !>![F,EF]2!mp! !>![G,DG]2)!<)! | %5
[M:4/2][Q:1/4=48]!p!!>(! !tenuto!.D.D D2-!>)!!pp![Q:1/4=46] D8[Q:1/4=50] z4 | %6
[M:3/2]!mp![Q:1/4=54]"^poco più agitato"!<(!"_cresc." ([G,G]2!mp! [A,A-]2!<)!!mf! [Ac]8)[Q:1/4=50] | %7
[M:2/2]!mp![Q:1/4=54]!<(! ([G,G]2!mp! [A,A-]2!<)!!mf! [CAc]4) | %8
[Q:1/4=52]!mp! (!tenuto!.G.G G2-[Q:1/4=50] G4) | %9
!mp![Q:1/4=54]!<(! ([G,G]2!mp! [A,A-]2!<)!!mf! [CAc]4) | %10
 z2!mp!!<(! ([G,G]!mp![A,A-]!mp! !>![B,AB]2!mf! !>![CGc]2)!<)! | %11
[Q:1/4=52]!mp!!>(! (!tenuto!.G.G G2-!>)!!pp![Q:1/4=50] G4) | %12
[M:3/2]!mf![Q:1/4=54]!<(! ([_F_d]2 [Ee]2!<)!!f! (cB) B2- [DB]2) z2 | %13
"_dim." ([_DB]2 [Cc]2 (_BA) A2- A4) |[M:2/2]!mp! (AG) G2-!<(! G4!<)! | %15
!mf! (GF) F2-!>(! [A,DF] z z2!>)! | %16
[K:bass] (E_D) D2-"^rit."[Q:1/4=52] D3[Q:1/4=46] [=D,=D]-[Q:1/4=50][Q:1/4=48] | %17
[M:3/2]!p![Q:1/4=50]!<(! ([D,D]2!mp! [E,E-]2!<)!!mp! !>![EG]8)[Q:1/4=46] | %18
[M:2/2]!p![Q:1/4=50]!<(! ([D,D]2 [E,E-]2!<)!!mp! [G,EG]4) | %19
[M:4/2][Q:1/4=48]!>(! (.D.D D2-!>)!!pp![Q:1/4=46] D4- [C,CD]8) | %20
[M:3/2][Q:1/4=50]!<(! ([D,D]2 [E,E-]2!mp! [EG]8)!<)![Q:1/4=46] | %21
[M:2/2][Q:1/4=50] z2!p!!<(! ([D,D]!p![E,E-]!p! !>![F,EF]2!mp! !>![G,DG]2)!<)! | %22
[M:4/2][Q:1/4=48] !tenuto!.D.D D2-[Q:1/4=46] D4- [C,D]8[Q:1/4=44][Q:1/4=42][Q:1/4=40][Q:1/4=38] | %23
[M:2/2][Q:1/4=40]!f! (GC) x2 x4 |!<(! (GC)!<)!!ff!!>(! (C4 =B,2)!>)! |!mf! (EA,) A,4!>(! z2!>)! | %26
[Q:1/4=36]!mp!!<(! ^D4!<)![Q:1/4=40]!mf!!>(! (!tenuto!=DC)!p! C2-!>)! | [G,CE]4 z4 |] %28
V:2
 C12 |[M:2/2] C8 |[M:4/2] C8- C8 |[M:3/2] C12 |[M:2/2] =B,8 |[M:4/2] (C8 =B,4) x4 |[M:3/2] F12 | %7
[M:2/2] F8 | [F,F]8 | F8 | =E8 | [F,F]8 |[M:3/2] x4 _D4- x4 | x4 =B,8 |[M:2/2] _B,8 | [A,_D]4- x4 | %16
[K:bass] E,7 x |[M:3/2] C12 |[M:2/2] C8 |[M:4/2] C8- x8 |[M:3/2] C12 |[M:2/2] =B,8 | %22
[M:4/2] (C8 x4"^rit."!<(! =B,4)!<)! |[M:2/2] ([G,C]2 [_D,A,C]4) z2 | ([G,C]2 [_D,A,]6) | %25
 !arpeggio![E,-A,]6 E,F, | ([^F,^D]4 [G,=E]4-) | x8 |] %28
V:3
 x4 G,2 x2 x4 |[M:2/2] x8 |[M:4/2] x16 |[M:3/2] x4 G,2 x2 x4 |[M:2/2] x8 |[M:4/2] x16 | %6
[M:3/2] x4 C2 x2 x4 |[M:2/2] x8 | x8 | x8 | x8 | x8 |[M:3/2] x12 | x12 |[M:2/2] x8 | x8 | %16
[K:bass] =B,8 |[M:3/2] x4 G,2 x2 x4 |[M:2/2] x8 |[M:4/2] x16 |[M:3/2] x4 G,2 x2 x4 |[M:2/2] x8 | %22
[M:4/2] x16 |[M:2/2] x8 | x8 | x8 | x8 | x8 |] %28
V:4
!>(!!ped! (A,,!pp!G,,!p!E,,!ped-up!!pp!!ped!C,,)!>)!!>(! x2!ped-up!!ped!!pp!!pp!!<(! (.D,.E,!>)!!>(! G,4)!<)!!ped-up!!>)! | %1
[M:2/2]"_simile"!ped!!>(! (A,,!pp!G,,!p!E,,!ped-up!!pp!!ped!C,,)!>)!!>(! (A,,!ped-up!!p!!ped!G,,E,,!pp!C,,)!>)! | %2
[M:4/2] x4!ped-up!!ped! (.D,.D, D,2- D,8)!ped-up! | %3
[M:3/2]!>(!!ped! (A,,!pp!G,,E,,!ped-up!!pp!!ped!C,,)!>)!!>(! x2!ped-up!!ped!!pp!!pp!!<(! (.D,.E,!>)!!>(! G,4)!<)!!>)! | %4
[M:2/2]!>(! (A,,!ped-up!!pp!G,,!p!E,,!ped!C,,)!>)!!>(! (A,,!p!G,,E,,!ped-up!!pp!!ped!C,,)!>)! | %5
[M:4/2] x4!ped-up!!ped! (.D,.D, D,2- [C,D,]4)!ped-up!!<(! z4!<)! | %6
[M:3/2]"_con"!>(!!ped! (_D,!p!C,!mp!A,,!ped-up!!p!!ped-up!!ped!F,,)!>)!!mf!!>(! x2!ped-up!!ped!!pp!!pp![I:staff -1] (.G,!<(!.A,!>)!!<)!!>(! C4)!>)! | %7
[M:2/2]!ped!!>(![I:staff +1] (_D,!p!C,!mp!A,,!p!!ped-up!!ped!F,,)!>)!!mf!!>(! (D,C,A,,!p!F,,)!>)! | x2!ped-up! %8
!ped! x4[I:staff -1] (.G,!ped-up!.G, G,2) | %9
!ped!!>(![I:staff +1] (_D,!p!C,!mp!A,,!p!!ped-up!!ped!F,,)!>)!!mf!!>(! (D,C,A,,!p!F,,)!ped-up!!>)! | %10
!>(! (_D,!p!C,!mp!A,,!ped!F,,)!>)!!>(! (D,!ped-up!!p!C,A,,!mp!F,,)!>)! | %11
 x4!ped![I:staff -1] (.G,.G, G,2)!ped-up! | %12
[M:3/2][I:staff +1] _F,2 C,2 (_D,2 E,2 =E,2)!ped! z2!ped-up! | %13
 _D,2!ped-up!!ped! A,,2 (=B,,2!ped! ^C,2 =D,2) z2 |[M:2/2] (=B,,4!ped!!ped-up!!ped! C,4 | %15
 _D,4-!ped-up!!ped!!ped-up! D,) z z2 | %16
!ped! A,, F,,2!ped-up!!ped! G,, A,,!ped-up!!ped!F,,G,,!ped-up!!ped!A,,- | %17
[M:3/2]!>(! (A,,!ped-up!!pp!!ped!G,,!ped-up!!p!!ped!E,,!pp!C,,)!>)!!>(! x2!ped-up!!ped!!pp!!pp![I:staff -1] (.D,!p!.E,!>)!!mp!!>(! G,4)!>)! | %18
[M:2/2]!ped!!>(![I:staff +1] (A,,!ped-up!!pp!"_con"G,,!p!!ped!E,,!ped-up!!pp!!ped!C,,)!>)!!>(! (A,,!ped-up!!p!G,,E,,!pp!C,,)!>)! | %19
[M:4/2] x4!ped![I:staff -1] (.D,.D, D,2-)!ped-up! D,8 | %20
[M:3/2]!>(![I:staff +1] (A,,!pp!!ped!G,,!p!!ped-up!!ped!E,,!pp!C,,)!>)!!>(! x2!ped-up!!ped!!pp!!pp!!<(![I:staff -1] (.D,.E,!>)!!>(! G,4)!<)!!ped-up!!>)! | %21
[M:2/2]!>(![I:staff +1] (A,,!pp!G,,!p!E,,!ped-up!!ped!C,,)!>)!!>(! (A,,!p!G,,E,,!pp!C,,)!>)! | %22
[M:4/2]!mf! x4!ped![I:staff -1] (.D,.D, D,2-)!ped-up! D,8 | %23
[M:2/2]!ped![I:staff +1] (E,,2!ped! [F,,,_D,,]4)!ped-up! z2 | x3!ped-up! %24
!ped! (E,,2 [F,,,_D,,]6)!ped-up!!ped!!ped-up! | !arpeggio![C,,A,,C,]6!ped!!ped-up! z2 | %26
 _B,,4!ped! C,,4-!ped-up! | [C,,,C,,]4 z4 |] %28
V:5
 x4 (A,,!p!G,,E,,C,,) (A,,!mp!G,,E,,C,,) |[M:2/2] x8 |[M:4/2] C,8- C,8 | %3
[M:3/2] x4 (A,,!p!G,,E,,C,,) (A,,!mp!G,,E,,C,,) |[M:2/2] x8 |[M:4/2] C,8- x8 | %6
[M:3/2] x4 (_D,!p!C,A,,F,,) (D,!mp!C,A,,F,,) |[M:2/2] x8 | x8 | x8 | x8 | x8 | %12
[M:3/2] (D,C,-=A,,^F,, G,, =E,,2) (=F,, G,,F,,G,,_A,,) | %13
 (B,,=A,,-^F,,^D,, =F,, =D,,2) (=E,, F,,D,,E,,F,,) |[M:2/2] =E,, (C,,2 D,, E,,C,,D,,E,,) | %15
 (F,, _D,,2 E,, F,,=E,,F,,G,,) | F,,,8 |[M:3/2] x4 (A,,!p!G,,E,,C,,) (A,,!mp!G,,E,,C,,) | %18
[M:2/2] x8 |[M:4/2][I:staff -1] C,8-[I:staff +1] x8 | %20
[M:3/2] x4 (A,,!p!G,,E,,C,,) (A,,!mp!G,,E,,C,,) |[M:2/2] x8 | %22
[M:4/2][I:staff -1] C,8-[I:staff +1] x8 |[M:2/2] A,,,G,,, x2 x4 | A,,,G,,, x2 x4 | x8 | %26
 (!tenuto!=D,,C,,) C,,2- C,,,4- | x8 |] %28
V:6
 x12 |[M:2/2] x8 |[M:4/2] (A,,G,,F,,C,,) (A,,G,,F,,C,,) (A,,G,,F,,C,,) (A,,G,,F,,C,,) | %3
[M:3/2] x12 |[M:2/2] x8 |[M:4/2] (A,,G,,F,,C,,) (A,,G,,F,,C,,) (A,,G,,F,,C,,) (F,,G,,A,,C,) | %6
[M:3/2] x12 |[M:2/2] x8 | (_D,C,B,,F,,) (D,C,B,,F,,) | x8 | x8 | (_D,C,B,,F,,) (D,C,B,,F,,) | %12
[M:3/2] x12 | x12 |[M:2/2] x8 | x8 | x8 |[M:3/2] x12 |[M:2/2] x8 | %19
[M:4/2] (A,,G,,F,,C,,) (A,,G,,F,,C,,) (A,,G,,F,,C,,) (A,,G,,F,,C,,) |[M:3/2] x12 |[M:2/2] x8 | %22
[M:4/2] (A,,G,,F,,C,,) (A,,G,,F,,C,,) (A,,G,,F,,C,,) (A,,G,,F,,C,,) |[M:2/2] x8 | x8 | x8 | x8 | %27
 x8 |] %28

